X:1
T:Jesus Ist das Schönste Licht, 78.78.78.88
T:Jesus Ist das Schönste Licht, 78.78.78.88
T:Johann Anastasius Freylinghausen (1670-1739)
T:Public Domain Courtesy of the Cyber Hymnal™
C:Johann Anastasius Freylinghausen (1670-1739)
Z:Public Domain
Z:Courtesy of the Cyber Hymnal™
%%score ( 1 2 ) ( 3 4 )
L:1/8
Q:1/4=107
M:none
K:G
V:1 treble 
V:2 treble 
V:3 bass 
V:4 bass 
V:1
|: (BA) (Bc) [Gd]2 ([Ce][Dd]) | [Ec]2 (c>B) [DB]4 | [DB]2 (A>G) G2 (AG) | %3
 G3 z"^Play 2 times" F [B,G]2 !fermata![B,G]2 :| BA (Bc) [Gd]2 ([Ac][GB]) | ([FA][EG]) (AB) [DA]4 | %6
 [Cc]2 [Dc]2 [DB]2 [DA]2 | (GB) (AG) [DF]2 !fermata![A,D]2 | ([DF]E) ([DF][^CG]) [DA]2 [DB]2 | %9
 [Ec]2 [Cc]2 [Ec]2 [Fc]2 | ([GB][FA]) (GF) (GA) ([DB][Fc]) | d2 ([Ac][GB]) A3 z G | %12
 !fermata![DG]8 |] %13
V:2
|: D2 G2 x4 | x2 D2 x4 | x2 F2 G2 E2 | D2 D2 x5 :| D2 D2 x4 | x2 D2 x4 | x8 | G2 E2 x4 | x E x6 | %9
 x8 | x2 D2 D2 x2 | (GB) x G2 F2 x2 | x8 |] %13
V:3
|: G,2 D2 [B,,D]2 G,2 | [A,,G,]2 [D,F,]2 [G,,G,]4 | [G,B,]2 [D,D]2 [E,B,]2 [C,C]2 | %3
 [D,A,]2 [D,,D,A,]2 [G,,G,]2 !fermata![G,,D,]2"^Play 2 times" x :| G,2 G,2 (G,D) [C,E]2 | %5
 [D,A,]2 (F,G,) [D,,D,F,]4 | [A,,E,]2 [F,,A,]2 [G,,G,]2 [D,F,]2 | %7
 (B,G,) (E,A,) [D,A,]2 !fermata![D,,D,F,]2 | A,2 A,2 [D,F,]2 [B,,^G,]2 | %9
 [A,,A,]2 [A,,E,]2 [A,C]2 [D,D]2 | [G,,D][A,,C] ([B,,B,][C,A,]) ([B,,G,][A,,F,]) ([G,,G,][A,,D]) | %11
 [B,,D]2 [C,E]2 A,2 D2 x | !fermata![G,,B,]8 |] %13
V:4
|: G,2 (G,,A,,) x (C,B,,) x | x8 | x8 | x9 :| G,2 (G,,A,,) B,,2 x2 | x2 D,2 x4 | x8 | E,2 ^C,2 x4 | %8
 (D,^C,) (D,E,) x4 | x8 | x8 | x4 D,4 x | x8 |] %13

